X:13
T:The blackberry blossom
R:Reel
O:USA
S:My arrangement from faulty memory
Z:Transcription, arrangement, chords:Mike Long
M:C|
L:1/8
K:G
(3(def)|\
"G"gabg "D"fgaf|"C"efge "G"dBAG|"C"EFGE "G"DB,DG|"G"BdBG "D"Adef|
"G"gabg "D"fgaf|"C"efge "G"dBAG|"C"EFGE "G"DB,DG|"G"BG"D"AF "G"G2:|\
|:D^D|\
"Em"E2eB d2e2|
E2eB dBAG|E2eB d2e2|"D"fgaf edBA|\
"Em"E2eB d2e2|E2eB dBAG|"C"cBcd efge|"D"dBAF "G"G2:|
